!!!COM: Bach, Johann Sebastian
!!!OPR: Joh. Seb. Bachs vierstimmige Choralges‰nge
!!!XEN: Four-part Chorales
!!!OTL: 142. O Welt, sieh' hier dein Leben
!!!SCT: BWV 395
!!!SCA: Thematisch-systematisches Verzeichnis der musikalischen Werke Johann Sebastian Bach: Bach-Werke-Verzeichnis (Schmieder)
!!!YOR: Bach Gesellschaft Edition xxxix
!!!ENC: Steven Rasmussen
!!!CDT: 1685/3//-1750/7/28/
!!!OCY: Deutschland
!!!YEC: Copyright (c) 1994, 2000 Center for Computer Assisted Research in the Humanities
!!!YEM: Rights to all derivative editions reserved
!!!YEN: United States of America
**kern	**silbe	**kern	**silbe	**kern	**silbe	**kern
*I:[SOPRANO]	*I:[SOPRANO]	*I:[ALTO]	*I:[ALTO]	*I:[TENORE]	*I:[TENORE]	*I:[BASSO]
*clefG2	*	*clefG2	*	*clefGv2	*	*clefF4
*k[f#c#g#]	*	*k[f#c#g#]	*	*k[f#c#g#]	*	*k[f#c#g#]
*A:	*	*A:	*	*A:	*	*A:
*M4/4	*	*M4/4	*	*M4/4	*	*M4/4
4cc#	O	4a	.	4e	.	4A
=1	=1	=1	=1	=1	=1	=1
4a	Welt,	4f#	.	4d	.	4d
4b	sieh'	4g#	.	4d	.	8c#L
.	.	.	.	.	.	8BJ
8cc#L	hier	8aL	.	8eL	.	4.A
8ddJ	.	8bJ	.	8dJ	.	.
4ee	dein	4cc#	.	8c#L	.	.
.	.	.	.	8BJ	.	8Gn
=2	=2	=2	=2	=2	=2	=2
2dd	Le-	4cc#	.	4A	.	4F#
.	.	8bL	.	4B	.	8G#L
.	.	8aJ	.	.	.	8F#J
4cc#;	-ben	4g#;	.	4c#;	.	4E#;
8cc#L	am	4f#	.	4A	.	4F#
8ddJ	.	.	.	.	.	.
=3	=3	=3	=3	=3	=3	=3
4ee	Stamm	4e	.	4A	.	8C#L
.	.	.	.	.	.	8BBJ
4ee	des	4a	.	4e	.	8C#L
.	.	.	.	.	.	8DJ
4b	Kreu-	4g#	.	4e	.	8EL
.	.	.	.	.	.	8DJ
8cc#L	-zes	4g#	.	4e#	.	4C#
8bJ	.	.	.	.	.	.
=4	=4	=4	=4	=4	=4	=4
2a	schwe-	8g#L	.	4c#	.	4F#
.	.	8f#	.	.	.	.
.	.	8e	.	4B	.	4BB
.	.	8d#J	.	.	.	.
4g#;	-ben,	4e;	.	4B;	.	4E;
4e	dein	4B	.	4G#	.	4D
=5	=5	=5	=5	=5	=5	=5
4a	Heil	4e	.	4A	.	4C#
4b	sinkt	8f#L	.	4d	.	4BB
.	.	8g#J	.	.	.	.
8cc#L	in	8aL	.	4e	.	4AA
16ddL	.	16bL	.	.	.	.
16eeJJ	.	16cc#JJ	.	.	.	.
8ddL	den	8bL	.	4f#	.	4D
8cc#J	.	8aJ	.	.	.	.
=6	=6	=6	=6	=6	=6	=6
2.b;	Tod!	2.g#;	.	2.B;	.	2.E;
4cc#	Der	4g#	.	4G#	.	4E#
=7	=7	=7	=7	=7	=7	=7
4a	gro-	4.f#	.	4c#	.	4F#
4b	-sse	.	.	4B	.	4G#
.	.	8e	.	.	.	.
8cc#L	F√ºrst	4e	.	8AL	.	4A
8ddJ	.	.	.	8BJ	.	.
4ee	der	4f#	.	4c#	.	4A#
=8	=8	=8	=8	=8	=8	=8
2dd	Eh-	4f#	.	4B	.	2B
.	.	4e#	.	4G#	.	.
4cc#;	-ren	4f#;	.	4A#;	.	4F#;
8cc#L	l√§sst	4f#	.	4An	.	4F#
8ddJ	.	.	.	.	.	.
=9	=9	=9	=9	=9	=9	=9
4ee	wil-	4e	.	4A	.	8C#L
.	.	.	.	.	.	8BBJ
4ee	-lig	8aL	.	4A	.	4C#
.	.	8g#J	.	.	.	.
4b	sich	4f#	.	4A	.	4D#
4cc#	be-	8eL	.	4G#	.	4E
.	.	16d#L	.	.	.	.
.	.	16c#JJ	.	.	.	.
=10	=10	=10	=10	=10	=10	=10
2a	-schwe-	2f#	.	(4c#	.	(4E
.	.	.	.	4B)	.	4D#)
4g#;	-ren	4e;	.	4B;	.	4E;
4e	mit	4B	.	4G#	.	4Dn
=11	=11	=11	=11	=11	=11	=11
4a	Schl√§-	4e	.	4A	.	4C#
4b	-gen,	8f#L	.	4d	.	4BB
.	.	8g#J	.	.	.	.
8cc#L	Hohn	[2a	Hohn	4.e	Hohn	8AAL
8ddJ	.	.	.	.	.	8BBJ
8eeL	und	.	.	.	.	8C#L
8ddJ	.	.	.	8f#	und	8DJ
=12	=12	=12	=12	=12	=12	=12
4cc#	gro-	4a]	.	4e	gro-	4E
4b	-ssem	4g#	und	4d	-ssem	4E
4a;	Spott.	4e;	Spott.	4c#;	Spott.	4AA;
==|!	==|!	==|!	==|!	==|!	==|!	==|!
*-	*-	*-	*-	*-	*-	*-
!!!RWG: Key is interpreted using the Humdrum key tool.
!!!END: 1994/07/27
!!!EMD: Converted from MuseData to Humdrum Dec 19, 2000, by Andreas Kornstaedt using muse2kern.
!!!EED: Craig Stuart Sapp
!!!EEV: 2024/03/31
!!!ONB: Some non-unicode characters
